X:16
T:McFadden's Handsome Daughter
M:4/4
R:reel
F:http://blackrosetheband.googlepages.com/ABCTUNES.ABC May 2009
K:A
E3F Az cf|ez cA BFAF|E2 EF AB(3cBA|BF (3FEF BFAF|
[C3E3]F Az cf|(3efe cA BFAF|(3EFE CE ABcA|BAFB A3B|
(3ABA ce fecf|(3efe cA BAFE|ABce fecf|ecBc A3z|
ABce faaf|ec (3cdc BAFA|a3e faec|B2 cA BFAF|
